X:2038
T:Thurot
T:(Tune Willie Riley)
N:See also KV37. 
C:George Moore, Balladoole
O:Isle of Man
S:Traditional
Z:Clague collection
B:Kiaull Vannin #38 
M:4/4
L:1/4 
K:D 
B|AG EE|GA BB| AG EE| E3 E|GA B d/e/|e2 d B/c/|de dc|B3 E/F/|
GA B c/d/|e2 dB/c/|de dc|B3 B|AG EE|GA BB|BA FF|E3||
